X:63
T:Donald Blew. JMP.063
M:2/4
L:1/8
Q:1/2=80
C:â€68â€³
S:John Miller MS. Perth, 1799.(for the fife)
R:.Scots Measure
O:Scotland
A:Perth
N:
H:1799
Z:vmp.C. Graeb
K:A major
f/e/ |â€No Key sig. givenâ€ dDDF | EDEf/e/ | dDDF | EF Af/e/ |!
dDDF | EDEF | d>BAF | EFA2 ::\
ABcA | (d/c/)(B/A/) BF | ABcA |!
Bcd2 |f>edA | dcBA | d>BAF | EF A2 ğŸ˜

